X:1
T:Ecce Advenit
T:Heinrich Isaac edit BMarble
T:Ecce Advenit
T:Copyright © 2015 by The Choral Public Domain Library. Edition may be freely distributed, duplicated, performed or recorded.
T:Copyright © 2015 by The Choral Public Domain Library. Edition may be freely distributed, duplicated, performed or recorded.
T:Copyright © 2015 by The Choral Public Domain Library. Edition may be freely distributed, duplicated, performed or recorded.
T:Copyright © 2015 by The Choral Public Domain Library. Edition may be freely distributed, duplicated, performed or recorded.
T:Copyright © 2015 by The Choral Public Domain Library. Edition may be freely distributed, duplicated, performed or recorded.
T:Copyright © 2015 by The Choral Public Domain Library. Edition may be freely distributed, duplicated, performed or recorded.
T:Copyright © 2015 by The Choral Public Domain Library. Edition may be freely distributed, duplicated, performed or recorded.
C:Heinrich Isaac
C:edit BMarble
Z:Copyright © 2015 by The Choral Public Domain Library. Edition may be freely distributed, duplicated, performed or recorded.
%%score [ 1 2 3 4 ]
L:1/8
Q:1/2=112
M:4/4
K:Bb
V:1 treble nm="SOPRANO" snm="S."
V:2 treble nm="ALTO" snm="A."
V:3 treble-8 transpose=-12 nm="TENOR" snm="T."
V:4 bass nm="BASS" snm="B."
V:1
"^antiphon""^Introit Epiphany: Behold the Lord the Ruler has come: and the kingdom is in his hand, and power, and dominion. Vs:  O God, give your judgment to the King, and your justice to the King’s Son." z16 | %1
w: |
 z16 ||[M:4/2] z16 | z16 | z16 | z16 | G8 B8 | B8 B8 | B8 c8 | B4 (B8 A4 | B8) G8 | A8 (B6 A2 | %12
w: |||||Do- mi-|na- tor|Do- mi-|nus, Do- *|* mi-|nus, Do- *|
 B4) (G8 ^F4) | G8 z8 | z16 | z8 G8 | B8 B8 | z8 z4 G4 | (G8 A8 | B8) G4 B4- | (B2 A2 G8 ^F4) | %21
w: * mi- *|nus:||et|re- gnum,|et|re- *|* gnum, re-||
 G16 | z8 G8 | A4 B8 A4 | G4 A8 G4 | F4 G8 F4 | E4 (F8 =E4) | F16 | z16 | z16 | G4 (B8 A4) | %31
w: gnum|in|ma- * *|||nu e- *|jus,|||et po- *|
 (B8 c8) | G8 z4 G4 | A4 B4 c8 | z4 c8 B4 | c4 B8 A4 | B4 A8 G4 | A4 G8 F4 | G2 A2 B2 A2 B6 AG | %39
w: te- *|stas, et|po- te- stas|et im-|pe- * *|* * ri-|um, et im-|pe- * * * * * *|
 F4 G8 ^F4 | G16- | G16 |]"^verse" z16 | z16 | z16 ||[M:4/2] z16 | G8 B8 | B4 B4 B8 | z8 z4 B4 | %49
w: * * ri-|um.|_|||||Et ju-|sti- ti- am|tu-|
 A4 B4 c4 d4- | d2 c2 B8 A4 | B16 ||[M:3/2][Q:1/2=92] c4 B4 G4 | (B8 A4 | F4) G8 | A4 B6 A2 | %56
w: ||am|Fi- li- o|Re- *|* gis,|Re- * *|
 G8 ^F4 | G12 ||[Q:1/2=108] F12 | (G6 A2 B4 | c8) !courtesy!=B4 | (c6 B2 A2 G2 | A4) (B6 A2) | %63
w: |gis.|Al-|le- * *|* lu-|ia, _ _ _|_ al- *|
 G8 ^F4 | G12 |] %65
w: le- lu-|ia.|
V:2
 z16 | z16 ||[M:4/2] z16 | z16 | z16 | G,8 B,8 | B,8 (B,6 C2 | D4) E8 (D2 C2) | B,8 z8 | %9
w: |||||Do- mi-|na- tor _|_ Do- mi- *|nus,|
 z4 (E4 F8 | D8) E8 | C4 F8 B,4 | (E8 D8) | z4 G,4 C6 B,2 | A,2 G,2 B,6 A,2 G,4- | %15
w: Do- *|* mi-|nus, Do- mi-|nus: _|et re- *||
 G,4 ^F,4 G,4 D4- | (D4 B,4) E8 | C8 z8 | z8 z4 D4- | (D4 B,4) C4 G,4 | B,4 C4 A,8 | G,16 | %22
w: * * gnum, et|_ _ re-|gnum,|et|_ _ re- *||gnum|
 z8 G,8 | D16- | D16- | D16 | C4 (B,4 C8) | A,8 z4 (A,4 | B,4) (D8 C4) | (D8 E8) | D8 z8 | %31
w: in|ma-|||nu e- *|jus, et|_ po- *|te- *|stas,|
 G,4 B,8 A,4 | B,4 D4 C4 G,4 | z8 z4 (C4 | B,4) A,4 B,6 G,2 | G,8 z8 | D16- | D16 | %38
w: et po- te-|stas, po- te- stas|et|_ im- pe- ri-|um,|et|_|
 (B,4 G,4) B,6 C2 | D16 | z4 D4 E4 D4 | D16 |] z16 | z16 | z16 ||[M:4/2] G,8 B,8 | B,4 B,4 B,8 | %47
w: im- * pe- ri-|um,|im- pe- ri-|um.||||Et ju-|sti- ti- am,|
 z8 D8 | F8 F4 F4 | F8 z4 (F4 | D4 E4 F8-) | F4 D8 (C2 B,2 ||[M:3/2] F4) D4 E4 | (D4 E4) F4- | %54
w: et|ju- sti- ti-|am tu-||* am Fi- *|* li- o|Re- * gis,|
 F4 (D4 E4) | (F6 E2 D4 | C4) D8 | D12 || (C8 D4) | E4 G8 | F4 (G6 F2 | E2 D2 C4) D4- | %62
w: _ Re- *|gis, _ _|_ Re-|gis.|Al- *|le- lu-|ia, al- *|* * * le-|
 (D2 C2 B,2 A,2 G,4) | (E4 D8) | D12 |] %65
w: |lu- *|ia.|
V:3
 D2 F2 G2 A2 G4 G2 F2 | G2 A2 B4 G2 G6 ||[M:4/2] G8 B8 | B8 B8 | z4 (B6 A2 G2 F2 | E8) F8 | %6
w: Ec- * * * ce ad- *|ve- * * * nit|Do- mi-|na- tor|Do- * * *|* mi-|
 G4 E6 F2 G2 A2 | B8 z4 B4- | B2 c2 d4 e8 | d4 B4 c8 | B8 z4 c4- | c4 A4 d8 | B4 c4 A8 | G8 z8 | %14
w: nus, _ _ _ _|_ Do-||* * mi-|nus, Do-||* * mi-|nus:|
 z16 | z16 | z4 (B8 G4) | A8 F4 B4- | (B2 A2 G8 ^F4) | G8 z8 | z4 G4 (c4 d4) | B4 (e6 d2 c4-) | %22
w: ||et _|re- gnum, re-||gnum,|et re- *|gnum, re- * *|
 (c4 =B4) c8 | z4 _B4 G4 A4 | B4 A4 F4 G4 | A4 B8 A4 | G4 (F4 G8) | F16 | z16 | G4 (B8 A4) | %30
w: * * gnum,|in ma- *|||nu e- *|jus,||et po- *|
 (B8 c8) | B4 G8 F4 | G8 C4 D4 | E4 F4 G4 A4 | B4 c4 d8 | c4 (d4 B4) c4 | (G4 A4 F4) G4 | %37
w: te- *|stas, po- te-|stas, et im-|pe- * * *|* * ri-|um, et _ im-|pe- * * ri-|
 D4 B8 A4 | (B8 G8) | A16 | G16- | G16 |] x2 F2 (G2 F2) (F2 B2) B2 B2 | %43
w: um, et im-|pe- *|ri-|um.||De- us _ ju- * di- ci-|
 (B2 A2) (B2 c2) c2 (B2 c2) B2 | B16 ||[M:4/2] z16 | z8 G8 | B8 B4 B4 | B8 z4 d4 | c4 B4 A4 F4 | %50
w: um _ tu- * um Re- * gi|da:||Et|ju- sti- ti-|am tu-||
 A4 B4 c8 | B16 ||[M:3/2] A4 B4 c4 | (B4 G4) c4 | d3 c B3 A G4 | c4 d4 G4- | G4 A8 | G12 || %58
w: |am|Fi- li- o|Re- * gis,|Re- * * * *|* gis, Re-||gis.|
 (F6 G2 A4) | B4 (e4 d4) | c4 d8 | (c2 B2 A2 G2 F4) | f2 e2 d2 c2 B4 | c4 A8 | G12 |] %65
w: Al- * *|le- lu- *|ia, al-|le- * * * *|lu- * * * *||ia.|
V:4
 z16 | z16 ||[M:4/2] z8 G,,8 | B,,8 B,,8 | (B,,6 C,2 D,4) E,4- | E,4 (D,2 C,2) B,,8 | z8 z4 B,4- | %7
w: ||Do-|mi- na-|tor _ _ Do-|* mi- * nus,|Do-|
 B,2 A,2 G,2 F,2 E,6 F,2 | G,2 A,2 B,8 A,4 | B,4 G,4 F,8 | z4 (G,8 E,4) | F,8 D,4 G,4- | %12
w: ||* mi- nus,|Do- *|mi- nus, Do-|
 (G,4 C,4) D,8 | G,,4 (C,8 A,,4) | D,8 B,,4 (C,4 | A,,8) G,,8 | z4 (G,8 E,4) | F,8 D,4 G,4- | %18
w: * * mi-|nus: et _|re- gnum, re-|* gnum,|et _|re- gnum, re-|
 (G,2 F,2 E,4) D,8 | z8 z4 G,4- | (G,4 E,4) (F,4 D,4) | E,4 (G,6 F,2 E,4 | D,8) C,4 E,4 | %23
w: * * * gnum,|et|_ _ re- *|gnum, re- * *|* gnum, in|
 D,4 G,8 F,4 | G,4 F,4 D,4 G,4 | D,4 G,6 F,2 D,4 | E,4 (D,4 C,8) | D,16 | G,,4 (B,,8 A,,4) | %29
w: ma- * *|||nu e- *|jus,|et po- *|
 (B,,8 C,8) | G,,4 G,8 F,4 | G,8 z8 | z4 (G,,4 A,,4) B,,4 | C,4 D,4 E,4 F,4 | G,4 A,4 G,8 | %35
w: te- *|stas, po- te-|stas,|et _ im-|pe- * * *|* * ri-|
 C,4 G,8 F,4 | (G,4 F,4 D,4) G,4 | F,4 G,4 D,8 | (G,8 E,8) | D,16 | G,,16- | G,,16 |] z16 | z16 | %44
w: um, et im-|pe- * * ri-|um, et im-|pe- *|ri-|um.|_|||
 z16 ||[M:4/2] z16 | z16 | G,,8 B,,8 | B,,4 B,,4 B,,8 | z4 B,,4 F,4 B,,4 | F,4 G,4 F,8 | %51
w: |||Et ju-|sti- ti- am|tu- * *||
 B,,8 B,8 ||[M:3/2] F,4 G,4 C,4 | G,4 E,2 G,2 F,4 | D,4 G,4 E,2 G,2 | F,4 D,4 (G,4 | E,4 D,8) | %57
w: * am|Fi- li- o|Re- * * *|gis, Re- * *|* gis, Re-||
 G,,12 || F,12 | (E,6 F,2 G,4 | _A,4) G,8 | C,4 F,8 | D,4 G,6 F,2 | E,2 C,2 D,8 | G,12 |] %65
w: gis.|Al-|le- * *|* lu-|ia, al-|le- lu- *||ia.|

